svgs/togetherprice.svg

<svg width="192" height="192" viewBox="0 0 192 192" fill="none" xmlns="http://www.w3.org/2000/svg">
<path d="M22 96L96 22L170 96L96 170L71.8437 145.844L58.4046 159.283L33.908 134.786L47.3471 121.347L22 96Z" stroke="black" stroke-width="12" stroke-linecap="round" stroke-linejoin="round"/>
<path d="M47.3472 121.347L71.8437 96.8506L97.1909 122.198L122.538 96.8506L96.8506 71.1632L121.007 47.0069" stroke="black" stroke-width="12" stroke-linecap="round" stroke-linejoin="round"/>
</svg>

<svg xmlns="http://www.w3.org/2000/svg" width="192" height="192" fill="none" viewBox="0 0 192 192"><path stroke="#000" stroke-linecap="round" stroke-linejoin="round" stroke-width="12" d="m22 96 74-74 74 74-74 74-24.156-24.156-13.44 13.439-24.496-24.497 13.44-13.439L22 96Z"/><path stroke="#000" stroke-linecap="round" stroke-linejoin="round" stroke-width="12" d="m47.347 121.347 24.497-24.496 25.347 25.347 25.347-25.347-25.687-25.688 24.156-24.156"/></svg>
